X: 40810
T: Traditional Laddie
R: reel
M: 4/4
K: Amajor
f|:edcBA2Af|eaceB2Bf|edcBA2Af|ecdB cAAf:|
f2fef2ed|cBce fBBc|ABcd edea|ecdB cAAg|
fgag f2ed|cBce fBBc|ABcd edea|ecdB cAA||

